!!!OTL: DORT SINKET DIE SONNE IM WESTEN
!!!ARE: Europa, Mitteleuropa, Deutschland
!!!SCT: B0227
!!!YEM: Copyright 1995, estate of Helmut Schaffrath.
**kern
*ICvox
*Ivox
*M3/8
*k[]
*C:
{8G
=1
8c
8G
8G
=2
8.G
16F
8E
=3
4F
8G
=4
4E}
{8G
=5
8.F
16G
8F
=6
8.E
16G
8E
=7
[4.D
=8
8D]
8r}
{8G
=9
8.B
16A
8G
=10
8c
8G
8e
=11
[4.f
=12
4f]}
{8e
=13
8d
8d
8d
=14
8.G
16A
8B
=15
[4.c
=16
8c]
8r}
==
!!!AGN: Tageszeiten - Lied, Abend
!!!ONB: ESAC (Essen Associative Code) Database: BOEHME
!!!AMT: simple triple
!!!AIN: vox
!!!EED: Helmut Schaffrath
!!!EEV: 1.0
*-
